packages/ffe-icons/icons/filled/sm/perm_contact_calendar.svg

<svg xmlns="http://www.w3.org/2000/svg" height="20" viewBox="0 -960 960 960" width="20"><path d="M216-215.615q55-45 123.5-68t140.5-23q72 0 140.5 22.5t123.5 68.5v-468.076q0-4.616-3.846-8.463-3.847-3.846-8.463-3.846H228.309q-4.616 0-8.463 3.846-3.846 3.847-3.846 8.463v468.076Zm263.758-154.386q-55.912 0-94.834-39.165-38.923-39.165-38.923-95.076 0-55.912 39.165-94.834 39.165-38.923 95.076-38.923 55.912 0 94.834 39.165 38.923 39.165 38.923 95.076 0 55.912-39.165 94.834-39.165 38.923-95.076 38.923Zm-251.449 254q-26.308 0-45.308-19t-19-45.308v-503.382q0-26.308 19-45.308t45.308-19h87.385v-73.847q0-11.453 7.597-19.111 7.597-7.657 18.961-7.657 11.364 0 19.172 7.657 7.807 7.658 7.807 19.111v73.847h223.076v-74.616q0-11.069 7.405-18.534 7.404-7.465 18.384-7.465 10.979 0 18.594 7.465 7.616 7.465 7.616 18.534v74.616h87.385q27.008 0 45.658 19 18.65 19 18.65 45.308v503.382q0 26.308-18.65 45.308t-45.658 19H228.309Z"/></svg>

<svg xmlns="http://www.w3.org/2000/svg" height="20" viewBox="0 -960 960 960" width="20"><path d="M216-215.61q55-45 123.5-68t140.5-23q72 0 140.5 22.5t123.5 68.5v-468.08q0-4.62-3.85-8.46-3.84-3.85-8.46-3.85H228.31q-4.62 0-8.46 3.85-3.85 3.84-3.85 8.46v468.08ZM479.76-370q-55.91 0-94.84-39.17Q346-448.33 346-504.24t39.17-94.84Q424.33-638 480.24-638t94.84 39.17Q614-559.67 614-503.76t-39.17 94.84Q535.67-370 479.76-370ZM228.31-116Q202-116 183-135q-19-19-19-45.31v-503.38Q164-710 183-729q19-19 45.31-19h87.38v-73.85q0-11.45 7.6-19.11 7.6-7.65 18.96-7.65 11.37 0 19.17 7.65 7.81 7.66 7.81 19.11V-748h223.08v-74.61q0-11.07 7.4-18.54 7.41-7.46 18.39-7.46t18.59 7.46q7.62 7.47 7.62 18.54V-748h87.38q27.01 0 45.66 19Q796-710 796-683.69v503.38Q796-154 777.35-135q-18.65 19-45.66 19H228.31Z"/></svg>
